X:1
T:Il n'est plaisir
T:Clémént Janequin
T:Source : Tiers livre contenant 21 chansons à 4, eslevées de plusieurs livres---Paris--- P.Attaignant---1536 (first print 1534) Editor : André Vierendeels (18/03/18) Notes : Original clefs : C1, C3, C4, F3 Original note values have been halved Editorial accidentals above the staff 
T:Il n'est plaisir
T:©
T:©
T:©
C:Clémént Janequin
Z:©
%%score [ 1 [ 2 3 ] 4 ]
L:1/8
Q:1/4=120
M:2/2
K:F
V:1 treble nm="Soprano" snm="S"
V:2 treble-8 nm="Tenor 1" snm="T 1"
V:3 treble-8 nm="Tenor 2" snm="T 2"
V:4 bass nm="Bass" snm="B"
V:1
 F4 F2 G2 | A3 A B2 B2 | A3 B c2 d2- | dc c4 B2 | c4 z2 A2 | A6 G2 | FEFG A2 G2- | GF F4 E2 | %8
w: Il nest plai-|sir ne pas- se-|temps au mo- *||de, que|de ber-|ge- * * * * *|* * * ri-|
 F4 z2 A2 | A2 A2 G2 c2- | cBAG FG A2- | A2 GF ED G2- | GF E2 D4 | z8 | z2 C2 D2 E2 | F3 G A3 G | %16
w: e, quant|on est par boys|_ _ _ _ _ _ ou|_ par _ _ _ _|_ _ _ champs,||chan- tant, dan-|sant, ri- ant à|
 F2 E2 D4 | C4 z2 A2- | AA B2 G2 A2- | AA B2 GG B2 | AF B2 AF A2 | G4 z2 D2 | G2 E2 C2 c2- | %23
w: son a- my-|e, la|_ dro- guet- te go-|* di- net- te, io- ly-|e, io- ly- en io- ly-|e, au|mode n'a riens _|
 cBAG F3 A | G2 F3 E ED | E4 z2 D2 | G2 E2 C2 c2- | cBAG F3 A | G2 F3 EE D/E/ | F8 |] %30
w: _ _ _ _ _ _|* * si plai- *|sant, il|nest plai- sir ne|_ _ _ _ _ _|* pas- * se- * *|temps.|
V:2
 c4 d2 d2 | f3 f f2 f2 | f3 e/d/ cA a2- | agef g3 f | edcB AG c2- | cBAG F2 G2 | A2 f2 f2 e2 | %7
w: Il nest plai-|sir ne pas- se-|temps _ _ _ _ au|_ _ _ _ _ _|* * * * * * mon-||de que de ber-|
 d2 B2 c4 | z2 c2 c2 c2 | d2 f3 eed | e2 f3 e d2 | c2 d2 G4- | G4 z2 g2- | g2 e2 f2 g2 | %14
w: ge- ri- e,|quant on est|par boys _ _ _|_ ou _ _|par- * champs,|_ chan-|* tant, dan- sant,|
 z2 f2 f2 e2 | d3 c/B/ AGAB | c3 B A2 f2- | feed e2 f2- | ff d2 e2 f2- | ff d2 e2 d2 | f2 ed f4 | %21
w: ri- ant à|son _ _ _ _ _ _|_ _ a- my-|* * * * e, la|_ do- guet- te go-|* di- net- te io-|ly- e, io- ly-|
 e4 c2 f2 | e2 c2 fg a2- | agfe dc d2- | d2 B2 c4 | z4 c2 f2 | e2 c2 fg a2- | agfe dc d2- | %28
w: e, au mon-|de n'a riens _ _|_ _ _ _ _ _ si|_ plai- sant|il nest|plai- sir ne _ _|_ _ _ _ _ _ _|
 d2 B2 c4 | c8 |] %30
w: * pas- se-|temps.|
V:3
 F4 A2 B2 | c3 c d2 d2 | cBcd e2 f2- | fedc d4 | c8 | z2 c2 c2 c2 | d3 c/B/ ABcA | BAGF G4 | F8 | %9
w: Il nest plai-|sir ne pas- se-|temps _ _ _ _ au|_ _ _ _ mon-|de,|que de ber-|ge- * * ri- * * *||e,|
 z8 | z2 A2 A2 A2 | FGAB c2 d2- | dc c4 B2 | c4 z2 c2- | c2 A2 B2 c2 | z2 d2 c3 B | A2 G2 FEFG | %17
w: |quant on est|par _ _ _ _ boys|_ _ ou par|champs, chan-|* tant, dan- sant|ri- ant à|son a- my- * * *|
 A4 c3 c | d2 B2 c3 c | d2 BG c2 BG | d2 BG d2 c2- | cG c2 A2 F2 | c3 B AG F2 | c3 B AG A2 | %24
w: e, la dro-|guet- te, go- di-|net- te io- ly- e, io-|ly- e, io- ly- e,|_ au mon- de n'a|riens _ _ _ _|si- * * * *|
 BAGF G2 z2 | A2 c2 A2 F2 | c3 B AG F2 | c3 B AG A2 | BAGF G4 | F8 |] %30
w: plai- * * * sant,|il nest plai- sir|ne _ _ _ _|_ _ _ _ _|pas- * * * se-|temps.|
V:4
 F,4 D,2 G,2 | F,2 F,2 B,,C,D,E, | F,G, A,4 D,2 | A,4 G,4 | C,4 z2 F,2 | F,6 E,2 | %6
w: Il nest plai-|sir ne pas- * * *|se- * temps au|mon- *|de, que|de ber-|
 D,C,D,E, F,2 C,2 | D,4 C,4 | z2 A,2 A,2 A,2 | F,G,A,B, C3 B, | A,G,F,E, D,E, F,2- | %11
w: ger- * * * * *|ri- e,|quant on est|par _ _ _ boys _|_ _ _ _ _ _ ou-|
 F,E, D,2 C,2 B,,2 | C,4 G,4 | z2 C,2 D,2 E,2 | F,4 z2 C,2 | D,3 E, F,4- | F,2 C,2 D,4 | %17
w: |par champs,|chan- tant, dan-|sant, ri-|ant à son|_ a- my-|
 A,,4 z2 F,2- | F,F, G,2 C,2 F,2- | F,F, G,2 C,C, G,2 | F,D, G,2 F,D, F,2 | C,2 z C, F,2 D,2 | %22
w: e, la|_ dro- guet- te, go-|* di- net- te, io- ly-|e, io- ly- e, io- ly-|e, au mon- de|
 C,2 C3 B,A,G, | F,2 F,3 E,D,C, | B,,2 D,2 C,4 | z2 C,2 F,2 D,2 | C,2 C3 B,A,G, | F,2 F,3 E,D,C, | %28
w: n'a riens _ _ _|_ si _ _ _|_ plai- sant|il nest plai-|sir ne _ _ _|_ pas- * * *|
 B,,2 D,2 C,4 | F,,8 |] %30
w: * * se-|temps.|

